X:142
T:GB/6a/142 Pretty Ploughboy
%%VWML:GB-6a-142-0
F:http://www.vwml.org/record/GB/6a/142
C:Transcribed by Simon Furey and Lewis Jones

http://www.vwml.org/record/GB/6a/142

VWML:GB-6a-142-0
L:1/4
Q:1/4=144
M:4/4
I:linebreak $
K:Ddor
"^Quick" D | G G F G | A2 D E/F/ | G2 F E | D3 D | G ^F G A/B/ | c c d c/B/ | A3 G |$ A G A/B/ c | d2 c d/c/ | A A G/F/E/D/ | C2 D E | F G A A | G F E F/E/ | D3 |]

